X:2404
T:Gumpendorfer Schottisch
O:england
C:Simon Wascher
N:please mail errors to: simon.wascher@chello.at
M:2/4
L:1/16
K:G
Bc|d2B2 GBcd|e2c2 A2ce|d2f2 e3f|g2d2 B2d^c|
d2B2 GBcd|e2c2 A3e|d2f2 edef|g2bag2:|
c2|BdcB cedc|dfed gdBG|ABcd ed^cd|fedc c2B2|
BdcB cedc|dfed gdBd|ABcd ed^cd|edef g2:|


